X: 24805
T: Maggie Mae
R: hornpipe
M: 4/4
K: Gmajor
(B>c)|:d>DD>D B>AG>B|A>EE>E A3G|F>GA>B c>AF>A|G>FG>A B>AB>c|
d>DD>D B>AG>B|A>EE>EA3G|F>GA>B c>AF>A|1 G2B2G2B>c:|2 G2B2G4||
|:G>AB>c A>Bc>A|B>dd>^c d4|^c>cc>B A>Bc2|d2^c2=c2B>c|
d>DD>D B>AG>B|A>EE>EA3G|F>GA>B c>AF>A|1 G2B2G4:|2 G2B2G2B>c||

